X:340
T:While Maureen is Far Away
B:Joyce, P. W.; "Old Irish Folk Music and Songs"
R:tune
A:Kilkenny
O:Irish
L:1/8
M:C
Z:Allan Garvin
K:F
(3A=Bc|d>efe dcAG|F2 F>G A2 d/c/A/F/|G>BAF D2 D2|D6 FG|
A3 G Adde|f2 gf e2 f2|edcA c>def|d6 FG|
A3 G Adde|fefg e3 f|d>cAG F2 G2|A6 fe|
d2 ed cAAG|F3 G Addc|A2 GF D2 D2|D6||
